assets/i18n/b-tr-dk.svg

<?xml version="1.0" encoding="UTF-8"?>
<svg width="219px" height="24px" viewBox="0 0 219 24" version="1.1" xmlns="http://www.w3.org/2000/svg" xmlns:xlink="http://www.w3.org/1999/xlink">
    <!-- Generator: Sketch 51.3 (57544) - http://www.bohemiancoding.com/sketch -->
    <title>SwG-Tr Copy-Black</title>
    <desc>Created with Sketch.</desc>
    <defs></defs>
    <g id="SwG-Tr-Copy" stroke="none" stroke-width="1" fill="none" fill-rule="evenodd">
        <path d="M84.588,4.901 C84.2966652,5.19233479 83.9440021,5.338 83.53,5.338 C83.1159979,5.338 82.7633348,5.19233479 82.472,4.901 C82.1806652,4.60966521 82.035,4.25700207 82.035,3.843 C82.035,3.42899793 82.1806652,3.07633479 82.472,2.785 C82.7633348,2.49366521 83.1159979,2.348 83.53,2.348 C83.9440021,2.348 84.2966652,2.49366521 84.588,2.785 C84.8793348,3.07633479 85.025,3.42899793 85.025,3.843 C85.025,4.25700207 84.8793348,4.60966521 84.588,4.901 Z M84.588,19 L82.472,19 L82.472,7.73 L84.588,7.73 L84.588,19 Z M89.60775,19 L87.49175,19 L87.49175,2.532 L89.60775,2.532 L89.60775,19 Z M97.3185,19.368 C95.6164915,19.368 94.232672,18.8006723 93.167,17.666 C92.101328,16.5313277 91.5685,15.0976753 91.5685,13.365 C91.5685,11.7243251 92.0859948,10.3136726 93.121,9.133 C94.1560052,7.95232743 95.478492,7.362 97.0885,7.362 C98.7598417,7.362 100.097662,7.90632789 101.102,8.995 C102.106338,10.0836721 102.6085,11.5403242 102.6085,13.365 L102.5855,13.756 L93.6845,13.756 C93.7458336,14.8906723 94.1253298,15.7876634 94.823,16.447 C95.5206702,17.1063366 96.337162,17.436 97.2725,17.436 C98.7905076,17.436 99.8178306,16.7920064 100.3545,15.504 L102.2405,16.286 C101.872498,17.1600044 101.266838,17.8921637 100.4235,18.4825 C99.5801624,19.0728363 98.5451728,19.368 97.3185,19.368 Z M100.3545,12.008 C100.3085,11.3639968 100.013336,10.7506696 99.469,10.168 C98.9246639,9.58533042 98.1158387,9.294 97.0425,9.294 C96.2604961,9.294 95.5820029,9.53933088 95.007,10.03 C94.4319971,10.5206691 94.0371677,11.1799959 93.8225,12.008 L100.3545,12.008 Z M113.453,19.368 C112.256994,19.368 111.256504,19.0230035 110.4515,18.333 C109.646496,17.6429965 109.244,16.7306723 109.244,15.596 C109.244,14.3693272 109.719329,13.4071702 110.67,12.7095 C111.620671,12.0118298 112.79366,11.663 114.189,11.663 C115.431006,11.663 116.450663,11.8929977 117.248,12.353 L117.248,12.031 C117.248,11.2029959 116.964336,10.5398358 116.397,10.0415 C115.829664,9.54316418 115.132004,9.294 114.304,9.294 C113.690664,9.294 113.134836,9.43966521 112.6365,9.731 C112.138164,10.0223348 111.797001,10.4209975 111.613,10.927 L109.681,10.099 C109.941668,9.42432996 110.45533,8.79950287 111.222,8.2245 C111.98867,7.64949712 113.00066,7.362 114.258,7.362 C115.699341,7.362 116.895329,7.78366245 117.846,8.627 C118.796671,9.47033755 119.272,10.658659 119.272,12.192 L119.272,19 L117.248,19 L117.248,17.436 L117.156,17.436 C116.312662,18.7240064 115.078341,19.368 113.453,19.368 Z M113.798,17.436 C114.672004,17.436 115.465496,17.1101699 116.1785,16.4585 C116.891504,15.8068301 117.248,15.0363378 117.248,14.147 C116.649997,13.6563309 115.753006,13.411 114.557,13.411 C113.529662,13.411 112.755336,13.6333311 112.234,14.078 C111.712664,14.5226689 111.452,15.043997 111.452,15.642 C111.452,16.1940028 111.689664,16.6309984 112.165,16.953 C112.640336,17.2750016 113.184664,17.436 113.798,17.436 Z M127.76475,19.368 C126.906079,19.368 126.135587,19.1840018 125.45325,18.816 C124.770913,18.4479982 124.261085,17.9880028 123.92375,17.436 L123.83175,17.436 L123.83175,19 L121.80775,19 L121.80775,2.532 L123.92375,2.532 L123.92375,7.73 L123.83175,9.294 L123.92375,9.294 C124.261085,8.74199724 124.770913,8.28200184 125.45325,7.914 C126.135587,7.54599816 126.906079,7.362 127.76475,7.362 C129.221424,7.362 130.478745,7.93699425 131.53675,9.087 C132.594755,10.2370057 133.12375,11.6629915 133.12375,13.365 C133.12375,15.0670085 132.594755,16.4929942 131.53675,17.643 C130.478745,18.7930057 129.221424,19.368 127.76475,19.368 Z M127.41975,17.436 C128.401088,17.436 129.244413,17.0641704 129.94975,16.3205 C130.655087,15.5768296 131.00775,14.5916728 131.00775,13.365 C131.00775,12.1383272 130.655087,11.1531704 129.94975,10.4095 C129.244413,9.66582962 128.401088,9.294 127.41975,9.294 C126.423078,9.294 125.57592,9.66199632 124.87825,10.398 C124.18058,11.1340037 123.83175,12.1229938 123.83175,13.365 C123.83175,14.6070062 124.18058,15.5959963 124.87825,16.332 C125.57592,17.0680037 126.423078,17.436 127.41975,17.436 Z M136.1885,9.087 C137.277172,7.93699425 138.664825,7.362 140.3515,7.362 C142.038175,7.362 143.425828,7.93316096 144.5145,9.0755 C145.603172,10.217839 146.1475,11.6476581 146.1475,13.365 C146.1475,15.0823419 145.603172,16.512161 144.5145,17.6545 C143.425828,18.796839 142.038175,19.368 140.3515,19.368 C138.664825,19.368 137.277172,18.796839 136.1885,17.6545 C135.099828,16.512161 134.5555,15.0823419 134.5555,13.365 C134.5555,11.6476581 135.099828,10.2216723 136.1885,9.087 Z M137.7525,16.332 C138.488504,17.0680037 139.354828,17.436 140.3515,17.436 C141.348172,17.436 142.210663,17.0641704 142.939,16.3205 C143.667337,15.5768296 144.0315,14.5916728 144.0315,13.365 C144.0315,12.1383272 143.667337,11.1531704 142.939,10.4095 C142.210663,9.66582962 141.348172,9.294 140.3515,9.294 C139.354828,9.294 138.492337,9.66582962 137.764,10.4095 C137.035663,11.1531704 136.6715,12.1383272 136.6715,13.365 C136.6715,14.5916728 137.03183,15.5806629 137.7525,16.332 Z M150.01725,7.73 L150.01725,9.294 L150.10925,9.294 C150.415918,8.75733065 150.898913,8.30116854 151.55825,7.9255 C152.217587,7.54983145 152.922913,7.362 153.67425,7.362 C155.06959,7.362 156.135246,7.79132904 156.87125,8.65 C157.607254,9.50867096 157.97525,10.6586595 157.97525,12.1 L157.97525,19 L155.85925,19 L155.85925,12.422 C155.85925,10.3366562 154.931593,9.294 153.07625,9.294 C152.202246,9.294 151.489253,9.64282985 150.93725,10.3405 C150.385247,11.0381702 150.10925,11.8469954 150.10925,12.767 L150.10925,19 L147.99325,19 L147.99325,7.73 L150.01725,7.73 Z M165.709,19.368 C164.006991,19.368 162.623172,18.8006723 161.5575,17.666 C160.491828,16.5313277 159.959,15.0976753 159.959,13.365 C159.959,11.7243251 160.476495,10.3136726 161.5115,9.133 C162.546505,7.95232743 163.868992,7.362 165.479,7.362 C167.150342,7.362 168.488162,7.90632789 169.4925,8.995 C170.496838,10.0836721 170.999,11.5403242 170.999,13.365 L170.976,13.756 L162.075,13.756 C162.136334,14.8906723 162.51583,15.7876634 163.2135,16.447 C163.91117,17.1063366 164.727662,17.436 165.663,17.436 C167.181008,17.436 168.208331,16.7920064 168.745,15.504 L170.631,16.286 C170.262998,17.1600044 169.657338,17.8921637 168.814,18.4825 C167.970662,19.0728363 166.935673,19.368 165.709,19.368 Z M168.745,12.008 C168.699,11.3639968 168.403836,10.7506696 167.8595,10.168 C167.315164,9.58533042 166.506339,9.294 165.433,9.294 C164.650996,9.294 163.972503,9.53933088 163.3975,10.03 C162.822497,10.5206691 162.427668,11.1799959 162.213,12.008 L168.745,12.008 Z M179.2675,9.087 C180.356172,7.93699425 181.743825,7.362 183.4305,7.362 C185.117175,7.362 186.504828,7.93316096 187.5935,9.0755 C188.682172,10.217839 189.2265,11.6476581 189.2265,13.365 C189.2265,15.0823419 188.682172,16.512161 187.5935,17.6545 C186.504828,18.796839 185.117175,19.368 183.4305,19.368 C181.743825,19.368 180.356172,18.796839 179.2675,17.6545 C178.178828,16.512161 177.6345,15.0823419 177.6345,13.365 C177.6345,11.6476581 178.178828,10.2216723 179.2675,9.087 Z M180.8315,16.332 C181.567504,17.0680037 182.433828,17.436 183.4305,17.436 C184.427172,17.436 185.289663,17.0641704 186.018,16.3205 C186.746337,15.5768296 187.1105,14.5916728 187.1105,13.365 C187.1105,12.1383272 186.746337,11.1531704 186.018,10.4095 C185.289663,9.66582962 184.427172,9.294 183.4305,9.294 C182.433828,9.294 181.571337,9.66582962 180.843,10.4095 C180.114663,11.1531704 179.7505,12.1383272 179.7505,13.365 C179.7505,14.5916728 180.11083,15.5806629 180.8315,16.332 Z M193.30325,19 L191.18725,19 L191.18725,2.532 L193.30325,2.532 L193.30325,19 Z M205.913,19 L203.889,19 L203.889,17.436 L203.797,17.436 C203.474998,17.9726693 202.984337,18.4288315 202.325,18.8045 C201.665663,19.1801685 200.968004,19.368 200.232,19.368 C198.821326,19.368 197.751837,18.938671 197.0235,18.08 C196.295163,17.221329 195.931,16.0713405 195.931,14.63 L195.931,7.73 L198.047,7.73 L198.047,14.285 C198.047,16.3856772 198.974657,17.436 200.83,17.436 C201.704004,17.436 202.416997,17.0833369 202.969,16.378 C203.521003,15.6726631 203.797,14.8600046 203.797,13.94 L203.797,7.73 L205.913,7.73 L205.913,19 Z M210.65675,7.73 L210.65675,9.294 L210.74875,9.294 C211.055418,8.75733065 211.538413,8.30116854 212.19775,7.9255 C212.857087,7.54983145 213.562413,7.362 214.31375,7.362 C215.70909,7.362 216.774746,7.79132904 217.51075,8.65 C218.246754,9.50867096 218.61475,10.6586595 218.61475,12.1 L218.61475,19 L216.49875,19 L216.49875,12.422 C216.49875,10.3366562 215.571093,9.294 213.71575,9.294 C212.841746,9.294 212.128753,9.64282985 211.57675,10.3405 C211.024747,11.0381702 210.74875,11.8469954 210.74875,12.767 L210.74875,19 L208.63275,19 L208.63275,7.73 L210.65675,7.73 Z" id="ile-abone-olun" fill="#FFFFFF"></path>
        <g id="Group" fill="#FFFFFF" fill-rule="nonzero">
            <path d="M9.36714443,19 C4.27673649,19 0,14.7346939 0,9.5 C0,4.26530612 4.27673649,0 9.36714443,0 C12.185226,0 14.1896362,1.13265306 15.6979052,2.62244898 L13.92172,4.44897959 C12.8401323,3.40816327 11.3715546,2.59183673 9.36714443,2.59183673 C5.646086,2.59183673 2.73869901,5.67346939 2.73869901,9.5 C2.73869901,13.3265306 5.646086,16.4081633 9.36714443,16.4081633 C11.7783903,16.4081633 13.1477398,15.4081633 14.030871,14.5102041 C14.755237,13.7653061 15.2216097,12.7040816 15.4002205,11.244898 L9.36714443,11.244898 L9.36714443,8.64285714 L17.8610805,8.64285714 C17.9503859,9.10204082 18,9.66326531 18,10.2653061 C18,12.2142857 17.4840132,14.622449 15.8169791,16.3367347 C14.1896362,18.0714286 12.1256891,19 9.36714443,19 Z" id="Shape"></path>
            <path d="M32,13 C32,16.4557596 29.3096447,19 26,19 C22.6903553,19 20,16.4557596 20,13 C20,9.52420701 22.6903553,7 26,7 C29.3096447,7 32,9.52420701 32,13 Z M29.3705584,13 C29.3705584,10.836394 27.8071066,9.3639399 26,9.3639399 C24.1928934,9.3639399 22.6294416,10.8464107 22.6294416,13 C22.6294416,15.1335559 24.1928934,16.6360601 26,16.6360601 C27.8071066,16.6360601 29.3705584,15.1435726 29.3705584,13 Z" id="Shape"></path>
            <path d="M45,13 C45,16.4557596 42.3096447,19 39,19 C35.7005076,19 33,16.4557596 33,13 C33,9.52420701 35.6903553,7 39,7 C42.3096447,7 45,9.52420701 45,13 Z M42.3807107,13 C42.3807107,10.836394 40.8172589,9.3639399 39.0101523,9.3639399 C37.2030457,9.3639399 35.6395939,10.8464107 35.6395939,13 C35.6395939,15.1335559 37.2030457,16.6360601 39.0101523,16.6360601 C40.8172589,16.6460768 42.3807107,15.1435726 42.3807107,13 Z" id="Shape"></path>
            <path d="M57,7.3621186 L57,17.8929188 C57,22.228555 54.5013055,24 51.5430809,24 C48.7571802,24 47.0913838,22.0915371 46.45953,20.5354059 L48.6518712,19.6056419 C49.0443864,20.5647668 50.0017406,21.6902706 51.5430809,21.6902706 C53.4386423,21.6902706 54.6066144,20.4864709 54.6066144,18.2452504 L54.6066144,17.4035694 L54.5204526,17.4035694 C53.9556136,18.1180196 52.8642298,18.7345999 51.4952132,18.7345999 C48.6231506,18.7345999 46,16.1801957 46,12.8917674 C46,9.58376511 48.6327241,7 51.4952132,7 C52.8642298,7 53.9556136,7.6263673 54.5204526,8.31145653 L54.6066144,8.31145653 L54.6066144,7.3621186 L57,7.3621186 Z M54.7789382,12.9015544 C54.7789382,10.8364997 53.4290688,9.31951641 51.7154047,9.31951641 C49.97302,9.31951641 48.5178416,10.8267127 48.5178416,12.9015544 C48.5178416,14.9470351 49.97302,16.4346575 51.7154047,16.4346575 C53.4290688,16.4346575 54.7789382,14.9470351 54.7789382,12.9015544 Z" id="Shape"></path>
            <polygon id="Shape" points="63 1 63 19 60 19 60 1"></polygon>
            <path d="M72.8441203,14.9732888 L74.8896992,16.3355593 C74.2278943,17.3171953 72.633546,19 69.8760255,19 C66.4567001,19 64,16.3656093 64,13 C64,9.43405676 66.4867821,7 69.5852325,7 C72.7037375,7 74.2278943,9.47412354 74.7292616,10.8163606 L75,11.4974958 L66.9680948,14.8230384 C67.579763,16.0250417 68.5423883,16.6460768 69.8860529,16.6460768 C71.2297174,16.6460768 72.1622607,15.9749583 72.8441203,14.9732888 Z M66.5369189,12.8096828 L71.911577,10.5859766 C71.6107566,9.83472454 70.72835,9.31385643 69.6754786,9.31385643 C68.331814,9.31385643 66.4667274,10.4958264 66.5369189,12.8096828 Z" id="Shape"></path>
        </g>
    </g>
</svg>

<svg width="219" height="24" viewBox="0 0 219 24" xmlns="http://www.w3.org/2000/svg"><title>SwG-Tr-Black</title><desc>Created with Sketch.</desc><g fill="none"><path d="M84.588 4.901c-.291.291-.644.437-1.058.437-.414 0-.767-.146-1.058-.437-.291-.291-.437-.644-.437-1.058 0-.414.146-.767.437-1.058.291-.291.644-.437 1.058-.437.414 0 .767.146 1.058.437.291.291.437.644.437 1.058 0 .414-.146.767-.437 1.058zm0 14.099h-2.116v-11.27h2.116v11.27zm5.02 0h-2.116v-16.468h2.116v16.468zm7.711.368c-1.702 0-3.086-.567-4.151-1.702-1.066-1.135-1.599-2.568-1.599-4.301 0-1.641.517-3.051 1.552-4.232 1.035-1.181 2.357-1.771 3.968-1.771 1.671 0 3.009.544 4.014 1.633 1.004 1.089 1.507 2.545 1.507 4.37l-.023.391h-8.901c.061 1.135.441 2.032 1.138 2.691.698.659 1.514.989 2.45.989 1.518 0 2.545-.644 3.082-1.932l1.886.782c-.368.874-.974 1.606-1.817 2.197-.843.59-1.878.885-3.105.885zm3.036-7.36c-.046-.644-.341-1.257-.886-1.84-.544-.583-1.353-.874-2.426-.874-.782 0-1.46.245-2.035.736-.575.491-.97 1.15-1.184 1.978h6.532zm13.099 7.36c-1.196 0-2.196-.345-3.002-1.035-.805-.69-1.207-1.602-1.207-2.737 0-1.227.475-2.189 1.426-2.886.951-.698 2.124-1.046 3.519-1.046 1.242 0 2.262.23 3.059.69v-.322c0-.828-.284-1.491-.851-1.99-.567-.498-1.265-.747-2.093-.747-.613 0-1.169.146-1.668.437-.498.291-.839.69-1.023 1.196l-1.932-.828c.261-.675.774-1.299 1.541-1.874.767-.575 1.779-.863 3.036-.863 1.441 0 2.637.422 3.588 1.265.951.843 1.426 2.032 1.426 3.565v6.808h-2.024v-1.564h-.092c-.843 1.288-2.078 1.932-3.703 1.932zm.345-1.932c.874 0 1.667-.326 2.38-.977.713-.652 1.07-1.422 1.07-2.312-.598-.491-1.495-.736-2.691-.736-1.027 0-1.802.222-2.323.667-.521.445-.782.966-.782 1.564 0 .552.238.989.713 1.311.475.322 1.02.483 1.633.483zm13.967 1.932c-.859 0-1.629-.184-2.312-.552-.682-.368-1.192-.828-1.529-1.38h-.092v1.564h-2.024v-16.468h2.116v5.198l-.092 1.564h.092c.337-.552.847-1.012 1.529-1.38.682-.368 1.453-.552 2.312-.552 1.457 0 2.714.575 3.772 1.725 1.058 1.15 1.587 2.576 1.587 4.278 0 1.702-.529 3.128-1.587 4.278-1.058 1.15-2.315 1.725-3.772 1.725zm-.345-1.932c.981 0 1.825-.372 2.53-1.116.705-.744 1.058-1.729 1.058-2.955 0-1.227-.353-2.212-1.058-2.956-.705-.744-1.549-1.115-2.53-1.115-.997 0-1.844.368-2.541 1.104-.698.736-1.046 1.725-1.046 2.967s.349 2.231 1.046 2.967c.698.736 1.545 1.104 2.541 1.104zm8.769-8.349c1.089-1.15 2.476-1.725 4.163-1.725 1.687 0 3.074.571 4.163 1.713 1.089 1.142 1.633 2.572 1.633 4.29 0 1.717-.544 3.147-1.633 4.289s-2.476 1.713-4.163 1.713c-1.687 0-3.074-.571-4.163-1.713-1.089-1.142-1.633-2.572-1.633-4.289 0-1.717.544-3.143 1.633-4.278zm1.564 7.245c.736.736 1.602 1.104 2.599 1.104.997 0 1.859-.372 2.588-1.116.728-.744 1.093-1.729 1.093-2.955 0-1.227-.364-2.212-1.093-2.956-.728-.744-1.591-1.115-2.588-1.115-.997 0-1.859.372-2.587 1.115-.728.744-1.093 1.729-1.093 2.956 0 1.227.36 2.216 1.081 2.967zm12.265-8.602v1.564h.092c.307-.537.79-.993 1.449-1.369s1.365-.564 2.116-.564c1.395 0 2.461.429 3.197 1.288.736.859 1.104 2.009 1.104 3.45v6.9h-2.116v-6.578c0-2.085-.928-3.128-2.783-3.128-.874 0-1.587.349-2.139 1.046-.552.698-.828 1.506-.828 2.426v6.233h-2.116v-11.27h2.024zm15.692 11.638c-1.702 0-3.086-.567-4.151-1.702-1.066-1.135-1.599-2.568-1.599-4.301 0-1.641.517-3.051 1.553-4.232 1.035-1.181 2.357-1.771 3.968-1.771 1.671 0 3.009.544 4.013 1.633s1.506 2.545 1.506 4.37l-.023.391h-8.901c.061 1.135.441 2.032 1.139 2.691.698.659 1.514.989 2.45.989 1.518 0 2.545-.644 3.082-1.932l1.886.782c-.368.874-.974 1.606-1.817 2.197-.843.59-1.878.885-3.105.885zm3.036-7.36c-.046-.644-.341-1.257-.886-1.84-.544-.583-1.353-.874-2.427-.874-.782 0-1.46.245-2.035.736-.575.491-.97 1.15-1.185 1.978h6.532zm10.523-2.921c1.089-1.15 2.476-1.725 4.163-1.725 1.687 0 3.074.571 4.163 1.713 1.089 1.142 1.633 2.572 1.633 4.29 0 1.717-.544 3.147-1.633 4.289s-2.476 1.713-4.163 1.713c-1.687 0-3.074-.571-4.163-1.713-1.089-1.142-1.633-2.572-1.633-4.289 0-1.717.544-3.143 1.633-4.278zm1.564 7.245c.736.736 1.602 1.104 2.599 1.104.997 0 1.859-.372 2.588-1.116.728-.744 1.093-1.729 1.093-2.955 0-1.227-.364-2.212-1.093-2.956-.728-.744-1.591-1.115-2.588-1.115-.997 0-1.859.372-2.588 1.115-.728.744-1.093 1.729-1.093 2.956 0 1.227.36 2.216 1.081 2.967zm12.472 2.668h-2.116v-16.468h2.116v16.468zm12.61 0h-2.024v-1.564h-.092c-.322.537-.813.993-1.472 1.369s-1.357.563-2.093.563c-1.411 0-2.48-.429-3.208-1.288-.728-.859-1.093-2.009-1.093-3.45v-6.9h2.116v6.555c0 2.101.928 3.151 2.783 3.151.874 0 1.587-.353 2.139-1.058.552-.705.828-1.518.828-2.438v-6.21h2.116v11.27zm4.744-11.27v1.564h.092c.307-.537.79-.993 1.449-1.369s1.365-.564 2.116-.564c1.395 0 2.461.429 3.197 1.288.736.859 1.104 2.009 1.104 3.45v6.9h-2.116v-6.578c0-2.085-.928-3.128-2.783-3.128-.874 0-1.587.349-2.139 1.046-.552.698-.828 1.506-.828 2.426v6.233h-2.116v-11.27h2.024z" fill="#fff"/><g fill-rule="nonzero"><path d="M9.367 19c-5.09 0-9.367-4.265-9.367-9.5s4.277-9.5 9.367-9.5c2.818 0 4.822 1.133 6.331 2.622l-1.776 1.827c-1.082-1.041-2.55-1.857-4.555-1.857-3.721 0-6.628 3.082-6.628 6.908 0 3.827 2.907 6.908 6.628 6.908 2.411 0 3.781-1 4.664-1.898.724-.745 1.191-1.806 1.369-3.265h-6.033v-2.602h8.494c.089.459.139 1.02.139 1.622 0 1.949-.516 4.357-2.183 6.071-1.627 1.735-3.691 2.663-6.45 2.663z" id="Shape" fill="#4285F4"/><path d="M32 13c0 3.456-2.69 6-6 6s-6-2.544-6-6c0-3.476 2.69-6 6-6s6 2.524 6 6zm-2.629 0c0-2.164-1.563-3.636-3.371-3.636-1.807 0-3.371 1.482-3.371 3.636 0 2.134 1.563 3.636 3.371 3.636 1.807 0 3.371-1.492 3.371-3.636z" id="Shape" fill="#E94235"/><path d="M45 13c0 3.456-2.69 6-6 6-3.299 0-6-2.544-6-6 0-3.476 2.69-6 6-6s6 2.524 6 6zm-2.619 0c0-2.164-1.563-3.636-3.371-3.636-1.807 0-3.371 1.482-3.371 3.636 0 2.134 1.563 3.636 3.371 3.636 1.807.01 3.371-1.492 3.371-3.636z" id="Shape" fill="#FABB05"/><path d="M57 7.362v10.531c0 4.336-2.499 6.107-5.457 6.107-2.786 0-4.452-1.908-5.084-3.465l2.192-.93c.393.959 1.35 2.085 2.891 2.085 1.896 0 3.064-1.204 3.064-3.445v-.842h-.086c-.565.714-1.656 1.331-3.025 1.331-2.872 0-5.495-2.554-5.495-5.843 0-3.308 2.633-5.892 5.495-5.892 1.369 0 2.46.626 3.025 1.311h.086v-.949h2.393zm-2.221 5.539c0-2.065-1.35-3.582-3.064-3.582-1.742 0-3.198 1.507-3.198 3.582 0 2.045 1.455 3.533 3.198 3.533 1.714 0 3.064-1.488 3.064-3.533z" id="Shape" fill="#4285F4"/><path id="Shape" fill="#34A853" d="M63 1v18h-3v-18z"/><path d="M72.844 14.973l2.046 1.362c-.662.982-2.256 2.664-5.014 2.664-3.419 0-5.876-2.634-5.876-6 0-3.566 2.487-6 5.585-6 3.119 0 4.643 2.474 5.144 3.816l.271.681-8.032 3.326c.612 1.202 1.574 1.823 2.918 1.823s2.276-.671 2.958-1.673zm-6.307-2.164l5.375-2.224c-.301-.751-1.183-1.272-2.236-1.272-1.344 0-3.209 1.182-3.139 3.496z" fill="#E94235"/></g></g></svg>
